X:807
T:Temple house
R:Jig
O:Scotland
B:Kerr's First p33
S:Kerr's First p33
Z:Transcription,chords:Mike Long
M:6/8
L:1/8
K:G
"Em"EFE G2E|B2E G2E|"D"DED F2D|A2D F2D|\
"Em"EFE G2E|B2E G2E|"G"BcB "D"cBA|"Em"BGE E2:|
e|\
"Em"gbg ege|gbg ege|"D"faf dfd|faf def|\
"Em"gbg ege|gbg ege|"G"gbg "D"faf|"Em"bge e2f|
"Em"gbg ege|gbg ege|"D"faf dfd|faf def|\
"Em"gfe "D"agf|"G"bag "D"fed|"G"BcB "D"cBA|"Em"BGE E2|]
